X: 1
T: Castle Dangerous
M: 3/4
L: 1/8
R: waltz
K: Dmaj
|: d>e |\ 
f2 a2 fd | G2 B2 d>B | A2 d2 fa | e4 d>e |
f2 a2 fd | G2 B2 d>B | A2 f2 gc | d4 :|
|: f>g |\
a2 fa fd | G2 B2 d>B | A2 d2 fa | e4 f>g |
a2 fa fd | G2 B2 d>B | A2 f2 gc | d4 :|
